public/assets/img/casestudies/wellmee/Background3.svg

<svg fill="none" height="1244" viewBox="0 0 1440 1244" width="1440" xmlns="http://www.w3.org/2000/svg" xmlns:xlink="http://www.w3.org/1999/xlink"><linearGradient id="a"><stop offset="0" stop-color="#ffa552"/><stop offset=".13111" stop-color="#ffd47a"/><stop offset=".294222" stop-color="#d3cf50"/><stop offset=".689753" stop-color="#8ce58a"/><stop offset="1" stop-color="#45de8c"/></linearGradient><linearGradient id="b" gradientUnits="userSpaceOnUse" x1="-28.3122" x2="-28.3122" xlink:href="#a" y1="5474.99" y2="637.014"/><linearGradient id="c" gradientUnits="userSpaceOnUse" x1="-1777.93" x2="952.404" xlink:href="#a" y1="5084.99" y2="355.915"/><clipPath id="d"><path d="m0 .203125h1440v1243h-1440z"/></clipPath><g clip-path="url(#d)"><path d="m-36.5 753.832c0-62.733-50.9186-113.973-113.519-109.9-408.323 26.567-795.787 195.806-1093.431 480.078-325.11 310.5-518.05 734.36-538.7 1183.45-20.66 449.09 132.56 888.87 427.8 1227.9 295.24 339.04 709.783 551.24 1157.452 592.51 447.669 41.26 894.019-91.59 1246.258-370.94 352.24-279.35 583.27-683.71 645.06-1129.01 61.78-445.3-50.42-897.29-313.3-1261.99-240.66-333.89-590.659-571.103-987.246-671.864-60.801-15.447-120.228 25.621-131.695 87.297-11.468 61.675 29.389 120.549 90.037 136.586 339.143 89.681 638.134 294.351 844.614 580.821 228.7 317.29 326.32 710.51 272.57 1097.93-53.76 387.41-254.75 739.2-561.201 982.23-306.449 243.04-694.774 358.62-1084.246 322.72-389.471-35.9-750.125-220.52-1006.983-515.48-256.86-294.96-390.16-677.56-372.19-1068.27s185.83-759.47 468.67-1029.61c255.373-243.89 586.74-390.458 936.562-416.632 62.5578-4.681 113.488-55.094 113.488-117.826z" fill="url(#b)"/><path d="m-36.5 753.832c0-62.733-50.9186-113.973-113.519-109.9-408.323 26.567-795.787 195.806-1093.431 480.078-325.11 310.5-518.05 734.36-538.7 1183.45-20.66 449.09 132.56 888.87 427.8 1227.9 295.24 339.04 709.783 551.24 1157.452 592.51 447.669 41.26 894.019-91.59 1246.258-370.94 352.24-279.35 583.27-683.71 645.06-1129.01 61.78-445.3-50.42-897.29-313.3-1261.99-240.66-333.89-590.659-571.103-987.246-671.864-60.801-15.447-120.228 25.621-131.695 87.297-11.468 61.675 29.389 120.549 90.037 136.586 339.143 89.681 638.134 294.351 844.614 580.821 228.7 317.29 326.32 710.51 272.57 1097.93-53.76 387.41-254.75 739.2-561.201 982.23-306.449 243.04-694.774 358.62-1084.246 322.72-389.471-35.9-750.125-220.52-1006.983-515.48-256.86-294.96-390.16-677.56-372.19-1068.27s185.83-759.47 468.67-1029.61c255.373-243.89 586.74-390.458 936.562-416.632 62.5578-4.681 113.488-55.094 113.488-117.826z" fill="#29d2c2"/><path d="m1146.96 622.648c36.6-44.263 30.53-110.06-15.6-144.275-350.273-259.805-777.754-396.8014-1215.7251-387.7542-472.7109 9.7652-926.1849 189.0102-1277.8249 505.0852-351.63 316.074-578.03 747.946-637.95 1216.946s50.63 943.92 311.5 1338.25c260.88 394.33 654.72 681.83 1109.794 810.12 455.072 128.3 941.091 88.86 1369.523-111.13 428.433-200 770.763-547.23 964.653-978.47 179.63-399.54 220.75-846.55 118.65-1270.54-13.44-55.83-71.63-87.15-126.68-70.78s-86.09 74.22-72.99 130.14c88.1 376.1 50.51 771.84-108.68 1125.9-173.43 385.76-479.67 696.38-862.928 875.29-383.255 178.9-818.025 214.18-1225.111 99.41-407.087-114.77-759.401-371.95-992.771-724.7s-332.26-777.59-278.66-1197.13c53.61-419.55 256.13-805.88 570.69-1088.627 314.556-282.745 720.215-443.09 1143.0802-451.825 388.1168-8.017 767.0258 112.171 1078.7078 340.362 46.342 33.927 111.722 27.991 148.322-16.272z" fill="url(#c)"/><path d="m1146.96 622.648c36.6-44.263 30.53-110.06-15.6-144.275-350.273-259.805-777.754-396.8014-1215.7251-387.7542-472.7109 9.7652-926.1849 189.0102-1277.8249 505.0852-351.63 316.074-578.03 747.946-637.95 1216.946s50.63 943.92 311.5 1338.25c260.88 394.33 654.72 681.83 1109.794 810.12 455.072 128.3 941.091 88.86 1369.523-111.13 428.433-200 770.763-547.23 964.653-978.47 179.63-399.54 220.75-846.55 118.65-1270.54-13.44-55.83-71.63-87.15-126.68-70.78s-86.09 74.22-72.99 130.14c88.1 376.1 50.51 771.84-108.68 1125.9-173.43 385.76-479.67 696.38-862.928 875.29-383.255 178.9-818.025 214.18-1225.111 99.41-407.087-114.77-759.401-371.95-992.771-724.7s-332.26-777.59-278.66-1197.13c53.61-419.55 256.13-805.88 570.69-1088.627 314.556-282.745 720.215-443.09 1143.0802-451.825 388.1168-8.017 767.0258 112.171 1078.7078 340.362 46.342 33.927 111.722 27.991 148.322-16.272z" fill="#29d2c2"/></g></svg>

<svg width="1440" height="1244" viewBox="0 0 1440 1244" fill="none" xmlns="http://www.w3.org/2000/svg">
<g clip-path="url(#clip0_4106_16812)">
<path d="M-36.5 753.832C-36.5 691.099 -87.4186 639.859 -150.019 643.932C-558.342 670.499 -945.806 839.738 -1243.45 1124.01C-1568.56 1434.51 -1761.5 1858.37 -1782.15 2307.46C-1802.81 2756.55 -1649.59 3196.33 -1354.35 3535.36C-1059.11 3874.4 -644.567 4086.6 -196.898 4127.87C250.771 4169.13 697.121 4036.28 1049.36 3756.93C1401.6 3477.58 1632.63 3073.22 1694.42 2627.92C1756.2 2182.62 1644 1730.63 1381.12 1365.93C1140.46 1032.04 790.461 794.827 393.874 694.066C333.073 678.619 273.646 719.687 262.179 781.363C250.711 843.038 291.568 901.912 352.216 917.949C691.359 1007.63 990.35 1212.3 1196.83 1498.77C1425.53 1816.06 1523.15 2209.28 1469.4 2596.7C1415.64 2984.11 1214.65 3335.9 908.199 3578.93C601.75 3821.97 213.425 3937.55 -176.047 3901.65C-565.518 3865.75 -926.172 3681.13 -1183.03 3386.17C-1439.89 3091.21 -1573.19 2708.61 -1555.22 2317.9C-1537.25 1927.19 -1369.39 1558.43 -1086.55 1288.29C-831.177 1044.4 -499.81 897.832 -149.988 871.658C-87.4302 866.977 -36.5 816.564 -36.5 753.832Z" fill="url(#paint0_linear_4106_16812)"/>
<path d="M-36.5 753.832C-36.5 691.099 -87.4186 639.859 -150.019 643.932C-558.342 670.499 -945.806 839.738 -1243.45 1124.01C-1568.56 1434.51 -1761.5 1858.37 -1782.15 2307.46C-1802.81 2756.55 -1649.59 3196.33 -1354.35 3535.36C-1059.11 3874.4 -644.567 4086.6 -196.898 4127.87C250.771 4169.13 697.121 4036.28 1049.36 3756.93C1401.6 3477.58 1632.63 3073.22 1694.42 2627.92C1756.2 2182.62 1644 1730.63 1381.12 1365.93C1140.46 1032.04 790.461 794.827 393.874 694.066C333.073 678.619 273.646 719.687 262.179 781.363C250.711 843.038 291.568 901.912 352.216 917.949C691.359 1007.63 990.35 1212.3 1196.83 1498.77C1425.53 1816.06 1523.15 2209.28 1469.4 2596.7C1415.64 2984.11 1214.65 3335.9 908.199 3578.93C601.75 3821.97 213.425 3937.55 -176.047 3901.65C-565.518 3865.75 -926.172 3681.13 -1183.03 3386.17C-1439.89 3091.21 -1573.19 2708.61 -1555.22 2317.9C-1537.25 1927.19 -1369.39 1558.43 -1086.55 1288.29C-831.177 1044.4 -499.81 897.832 -149.988 871.658C-87.4302 866.977 -36.5 816.564 -36.5 753.832Z" fill="#29D2C2"/>
<path d="M1146.96 622.648C1183.56 578.385 1177.49 512.588 1131.36 478.373C781.087 218.568 353.606 81.5716 -84.3651 90.6188C-557.076 100.384 -1010.55 279.629 -1362.19 595.704C-1713.82 911.778 -1940.22 1343.65 -2000.14 1812.65C-2060.06 2281.65 -1949.51 2756.57 -1688.64 3150.9C-1427.76 3545.23 -1033.92 3832.73 -578.846 3961.02C-123.774 4089.32 362.245 4049.88 790.677 3849.89C1219.11 3649.89 1561.44 3302.66 1755.33 2871.42C1934.96 2471.88 1976.08 2024.87 1873.98 1600.88C1860.54 1545.05 1802.35 1513.73 1747.3 1530.1C1692.25 1546.47 1661.21 1604.32 1674.31 1660.24C1762.41 2036.34 1724.82 2432.08 1565.63 2786.14C1392.2 3171.9 1085.96 3482.52 702.702 3661.43C319.447 3840.33 -115.323 3875.61 -522.409 3760.84C-929.496 3646.07 -1281.81 3388.89 -1515.18 3036.14C-1748.55 2683.39 -1847.44 2258.55 -1793.84 1839.01C-1740.23 1419.46 -1537.71 1033.13 -1223.15 750.383C-908.594 467.638 -502.935 307.293 -80.0698 298.558C308.047 290.541 686.956 410.729 998.638 638.92C1044.98 672.847 1110.36 666.911 1146.96 622.648Z" fill="url(#paint1_linear_4106_16812)"/>
<path d="M1146.96 622.648C1183.56 578.385 1177.49 512.588 1131.36 478.373C781.087 218.568 353.606 81.5716 -84.3651 90.6188C-557.076 100.384 -1010.55 279.629 -1362.19 595.704C-1713.82 911.778 -1940.22 1343.65 -2000.14 1812.65C-2060.06 2281.65 -1949.51 2756.57 -1688.64 3150.9C-1427.76 3545.23 -1033.92 3832.73 -578.846 3961.02C-123.774 4089.32 362.245 4049.88 790.677 3849.89C1219.11 3649.89 1561.44 3302.66 1755.33 2871.42C1934.96 2471.88 1976.08 2024.87 1873.98 1600.88C1860.54 1545.05 1802.35 1513.73 1747.3 1530.1C1692.25 1546.47 1661.21 1604.32 1674.31 1660.24C1762.41 2036.34 1724.82 2432.08 1565.63 2786.14C1392.2 3171.9 1085.96 3482.52 702.702 3661.43C319.447 3840.33 -115.323 3875.61 -522.409 3760.84C-929.496 3646.07 -1281.81 3388.89 -1515.18 3036.14C-1748.55 2683.39 -1847.44 2258.55 -1793.84 1839.01C-1740.23 1419.46 -1537.71 1033.13 -1223.15 750.383C-908.594 467.638 -502.935 307.293 -80.0698 298.558C308.047 290.541 686.956 410.729 998.638 638.92C1044.98 672.847 1110.36 666.911 1146.96 622.648Z" fill="#29D2C2"/>
</g>
<defs>
<linearGradient id="paint0_linear_4106_16812" x1="-28.3122" y1="5474.99" x2="-28.3122" y2="637.014" gradientUnits="userSpaceOnUse">
<stop stop-color="#FFA552"/>
<stop offset="0.13111" stop-color="#FFD47A"/>
<stop offset="0.294222" stop-color="#D3CF50"/>
<stop offset="0.689753" stop-color="#8CE58A"/>
<stop offset="1" stop-color="#45DE8C"/>
</linearGradient>
<linearGradient id="paint1_linear_4106_16812" x1="-1777.93" y1="5084.99" x2="952.404" y2="355.915" gradientUnits="userSpaceOnUse">
<stop stop-color="#FFA552"/>
<stop offset="0.13111" stop-color="#FFD47A"/>
<stop offset="0.294222" stop-color="#D3CF50"/>
<stop offset="0.689753" stop-color="#8CE58A"/>
<stop offset="1" stop-color="#45DE8C"/>
</linearGradient>
<clipPath id="clip0_4106_16812">
<rect width="1440" height="1243" fill="white" transform="translate(0 0.203125)"/>
</clipPath>
</defs>
</svg>
